src/32/apps/preferences-desktop-peripherals.svg

<?xml version="1.0" encoding="UTF-8" standalone="no"?>
<svg
   xmlns:dc="http://purl.org/dc/elements/1.1/"
   xmlns:cc="http://creativecommons.org/ns#"
   xmlns:rdf="http://www.w3.org/1999/02/22-rdf-syntax-ns#"
   xmlns:svg="http://www.w3.org/2000/svg"
   xmlns="http://www.w3.org/2000/svg"
   xmlns:sodipodi="http://sodipodi.sourceforge.net/DTD/sodipodi-0.dtd"
   xmlns:inkscape="http://www.inkscape.org/namespaces/inkscape"
   version="1.1"
   width="32"
   height="32"
   id="svg4300"
   inkscape:version="0.92.4 (5da689c313, 2019-01-14)"
   sodipodi:docname="preferences-desktop-peripherals.svg">
  <sodipodi:namedview
     pagecolor="#ffffff"
     bordercolor="#666666"
     borderopacity="1"
     objecttolerance="10"
     gridtolerance="10"
     guidetolerance="10"
     inkscape:pageopacity="0"
     inkscape:pageshadow="2"
     inkscape:window-width="1366"
     inkscape:window-height="697"
     id="namedview68"
     showgrid="false"
     inkscape:zoom="5.6568542"
     inkscape:cx="-22.327499"
     inkscape:cy="18.890503"
     inkscape:window-x="0"
     inkscape:window-y="0"
     inkscape:window-maximized="1"
     inkscape:current-layer="svg4300">
    <inkscape:grid
       type="xygrid"
       id="grid8141" />
  </sodipodi:namedview>
  <defs
     id="defs4302" />
  <metadata
     id="metadata4305">
    <rdf:RDF>
      <cc:Work
         rdf:about="">
        <dc:format>image/svg+xml</dc:format>
        <dc:type
           rdf:resource="http://purl.org/dc/dcmitype/StillImage" />
        <dc:title />
      </cc:Work>
    </rdf:RDF>
  </metadata>
  <rect
     style="color:#000000;display:inline;overflow:visible;visibility:visible;fill:#e6e6e6;fill-opacity:1;fill-rule:nonzero;stroke:none;stroke-width:1;marker:none;enable-background:accumulate"
     id="rect5505"
     y="8"
     x="6.8943653"
     ry="1.5833334"
     rx="1.5"
     height="19"
     width="22" />
  <path
     inkscape:connector-curvature="0"
     style="color:#000000;display:inline;overflow:visible;visibility:visible;fill:none;stroke:#000000;stroke-width:1;stroke-linecap:round;stroke-linejoin:round;stroke-miterlimit:4;stroke-dasharray:none;stroke-dashoffset:0;stroke-opacity:0.19607843;marker:none;enable-background:accumulate"
     id="rect5505-6-6"
     d="m 16.75,27.5 10.65625,0 c 1.108,0 2,-0.892 2,-2 l 0,-16 c 0,-1.108 -0.892,-2 -2,-2 L 17.75,7.5"
     sodipodi:nodetypes="cssssc" />
  <path
     inkscape:connector-curvature="0"
     style="color:#000000;display:inline;overflow:visible;visibility:visible;fill:#f9f9f9;fill-opacity:1;fill-rule:nonzero;stroke:none;stroke-width:0.99992198;marker:none;enable-background:accumulate"
     id="path4487"
     d="M 9.973523,3.0002484 C 8.320279,3.0391614 6.458226,3.1393485 4.895221,4.2125026 A 0.58556812,0.58097081 0 0 0 4.780674,4.3072106 C 3.1569544,6.1878408 3.4517739,8.68243 3.1960902,10.595779 a 0.58556812,0.58097081 0 0 0 -0.019061,0.03788 c -0.2936586,4.903463 -0.2774201,9.875468 0.4772841,14.774346 a 0.58556812,0.58097081 0 0 0 0,0.01891 c 0.2454814,1.297009 1.0594097,2.673676 2.5582437,3.030637 0.0146,0.0037 0.02345,0.01564 0.03818,0.01891 l 0,-0.01891 c 2.27415,0.691742 4.729892,0.691929 7.006528,0.170472 1.179151,-0.270484 2.400881,-0.995182 2.825522,-2.310859 0.0019,-0.0054 -0.0019,-0.01328 0,-0.01891 0.554242,-1.571852 0.543509,-3.189994 0.706381,-4.659603 a 0.58556812,0.58097081 0 0 0 0.01907,-0.01891 C 17.11172,16.905587 17.090954,12.146307 16.483677,7.4325836 16.399603,6.764092 16.263232,6.028284 15.930028,5.3490214 15.600435,4.6771235 15.061374,4.0693598 14.26908,3.7389962 c -0.0036,-0.0012 0.0036,-0.017457 0,-0.018912 -0.0055,-0.00243 -0.01332,0.00243 -0.01907,0 C 12.86482,3.1031684 11.3516,3.0531689 10.011729,3.0003086 a 0.58556812,0.58097081 0 0 0 -0.03818,0 z" />
  <path
     inkscape:connector-curvature="0"
     style="color:#000000;display:inline;overflow:visible;visibility:visible;fill:none;stroke:#000000;stroke-width:1;stroke-linecap:round;stroke-linejoin:round;stroke-miterlimit:4;stroke-dasharray:none;stroke-dashoffset:0;stroke-opacity:0.13725491;marker:none;enable-background:accumulate"
     id="path4487-4"
     d="M 9.971632,2.5002222 C 8.20029,2.5406322 6.205223,2.6446727 4.530566,3.7591051 a 0.62739771,0.60331751 0 0 0 -0.12273,0.098351 C 2.6681272,5.8104235 2.9840069,8.4009655 2.7100586,10.38791 a 0.62739771,0.60331751 0 0 0 -0.020422,0.03934 c -0.3146364,5.092071 -0.297238,10.255322 0.511378,15.342632 a 0.62739771,0.60331751 0 0 0 0,0.01964 c 0.2630171,1.346897 1.1350874,2.776517 2.7409894,3.147208 0.01564,0.0038 0.02513,0.01624 0.04091,0.01964 l 0,-0.01964 c 2.436602,0.71835 5.067768,0.718544 7.507034,0.177029 1.263382,-0.280888 2.572386,-1.033461 3.027361,-2.399745 0.002,-0.0056 -0.002,-0.01379 0,-0.01964 0.593834,-1.632312 0.582334,-3.312695 0.75684,-4.838832 a 0.62739771,0.60331751 0 0 0 0.02043,-0.01964 C 17.61974,16.940422 17.597491,11.998079 16.946834,7.1030446 16.856754,6.4088398 16.710641,5.6447294 16.353635,4.9393394 16.000498,4.2415973 15.42293,3.6104563 14.574039,3.2673855 c -0.0039,-0.00125 0.0039,-0.018128 0,-0.019639 -0.0059,-0.00252 -0.01427,0.00252 -0.02043,0 -1.48414,-0.6406455 -3.105456,-0.6925682 -4.54104,-0.7474618 a 0.62739771,0.60331751 0 0 0 -0.04091,0 z" />
</svg>

<svg xmlns="http://www.w3.org/2000/svg" width="32" height="32"><rect style="marker:none" y="8" x="6.894" ry="1.583" rx="1.5" height="19" width="22" color="#000" overflow="visible" fill="#e6e6e6"/><path style="marker:none" d="M16.75 27.5h10.656c1.108 0 2-.892 2-2v-16c0-1.108-.892-2-2-2H17.75" color="#000" overflow="visible" fill="none" stroke="#000" stroke-linecap="round" stroke-linejoin="round" stroke-opacity=".196"/><path style="marker:none" d="M9.974 3c-1.654.04-3.516.14-5.079 1.213a.586.581 0 0 0-.114.094c-1.624 1.88-1.33 4.375-1.585 6.289a.586.581 0 0 0-.019.038c-.294 4.903-.277 9.875.477 14.774a.586.581 0 0 0 0 .019c.246 1.297 1.06 2.674 2.559 3.03.014.004.023.016.038.02v-.02c2.274.692 4.73.692 7.006.171 1.18-.27 2.401-.995 2.826-2.31.002-.006-.002-.014 0-.02.554-1.572.543-3.19.706-4.66a.586.581 0 0 0 .02-.018c.303-4.714.282-9.474-.325-14.187-.084-.669-.22-1.405-.554-2.084-.33-.672-.869-1.28-1.66-1.61-.005-.001.003-.017 0-.019-.006-.002-.014.003-.02 0-1.385-.617-2.898-.667-4.238-.72a.586.581 0 0 0-.038 0z" color="#000" overflow="visible" fill="#f9f9f9"/><path style="marker:none" d="M9.972 2.5c-1.772.04-3.767.145-5.441 1.26a.627.603 0 0 0-.123.097c-1.74 1.953-1.424 4.544-1.698 6.53a.627.603 0 0 0-.02.04c-.315 5.092-.298 10.256.511 15.343a.627.603 0 0 0 0 .02c.263 1.346 1.135 2.776 2.741 3.147.016.004.025.016.04.02v-.02c2.438.718 5.069.718 7.508.177 1.263-.281 2.572-1.034 3.027-2.4.002-.006-.002-.014 0-.02.594-1.632.583-3.312.757-4.838a.627.603 0 0 0 .02-.02c.326-4.896.303-9.838-.347-14.733-.09-.694-.236-1.458-.593-2.164-.354-.697-.931-1.329-1.78-1.672-.004 0 .004-.018 0-.02-.006-.002-.014.003-.02 0-1.485-.64-3.106-.692-4.541-.747a.627.603 0 0 0-.041 0z" color="#000" overflow="visible" fill="none" stroke="#000" stroke-linecap="round" stroke-linejoin="round" stroke-opacity=".137"/></svg>
